assets/icons/l2-swap.svg

<svg width="136" height="33" viewBox="0 0 136 33" fill="none" xmlns="http://www.w3.org/2000/svg">
<g clip-path="url(#clip0_20872_8518)">
<path d="M22.8247 10.0461V10.0304C22.7152 9.74879 22.324 9.74879 22.2145 10.0304L20.3211 15.2255C20.2741 15.3664 20.2741 15.5228 20.3211 15.6793L25.3722 29.5292C24.9007 29.8705 24.4099 30.1867 23.9016 30.4759L19.6326 18.7619C19.523 18.4803 19.1318 18.4803 19.0223 18.7619L17.1289 23.957C17.082 24.0979 17.082 24.2543 17.1289 24.4108L19.9211 32.0761C18.6665 32.3922 17.353 32.5601 16.0001 32.5601C14.7364 32.5601 13.5069 32.4136 12.3277 32.1365L21.5886 6.72875C21.6668 6.50968 21.5103 6.29061 21.2912 6.29061V6.30626H17.6453C17.3793 6.30626 17.1289 6.47839 17.035 6.72875L8.3234 30.6016C7.81219 30.3216 7.31803 30.0145 6.8428 29.6821L15.2199 6.72875C15.2981 6.50968 15.1416 6.29061 14.9226 6.29061L14.9069 6.30626H11.261C10.995 6.30626 10.7446 6.47839 10.6507 6.72875L3.44597 26.4804C1.28813 23.7536 0 20.3073 0 16.5601C0 7.72349 7.16343 0.560059 16.0001 0.560059C24.8367 0.560059 32 7.72349 32 16.5601C32 20.1998 30.7848 23.5555 28.7377 26.2438L22.8247 10.0461Z" fill="#213147"/>
<path d="M23.9017 30.476C22.668 31.1781 21.3318 31.7208 19.9212 32.0762L17.129 24.4109C17.082 24.2544 17.082 24.0979 17.129 23.9571L19.0223 18.762C19.1319 18.4804 19.5231 18.4804 19.6326 18.762L23.9017 30.476Z" fill="#12AAFF"/>
<path d="M28.7375 26.2437C27.7835 27.4968 26.6487 28.605 25.372 29.5291L20.3209 15.6792C20.2739 15.5227 20.2739 15.3663 20.3209 15.2254L22.2142 10.0303C22.3238 9.74868 22.715 9.74868 22.8245 10.0303V10.046L28.7375 26.2437Z" fill="#12AAFF"/>
<path d="M15.2197 6.72867L6.84263 29.682C5.56014 28.7854 4.41503 27.7055 3.4458 26.4803L10.6505 6.72867C10.7444 6.4783 10.9948 6.30618 11.2608 6.30618H14.9068L14.9224 6.29053C15.1415 6.29053 15.2979 6.5096 15.2197 6.72867Z" fill="white"/>
<path d="M21.5884 6.72867L12.3275 32.1364C10.9109 31.8039 9.56693 31.283 8.32324 30.6015L17.0349 6.72867C17.1288 6.4783 17.3791 6.30618 17.6451 6.30618H21.2911V6.29053C21.5102 6.29053 21.6666 6.5096 21.5884 6.72867Z" fill="white"/>
<circle cx="16" cy="16.5601" r="15.5" stroke="#302682"/>
</g>
<path d="M57.5 16.5601C57.5 25.1205 50.5604 32.0601 42 32.0601C33.4396 32.0601 26.5 25.1205 26.5 16.5601C26.5 7.99965 33.4396 1.06006 42 1.06006C50.5604 1.06006 57.5 7.99965 57.5 16.5601Z" fill="#FF0420" stroke="#302682"/>
<path d="M37.3336 20.8127C36.3809 20.8127 35.6004 20.5884 34.992 20.1402C34.3915 19.6838 34.0913 19.0353 34.0913 18.1947C34.0913 18.0186 34.1112 17.8024 34.1512 17.5462C34.2555 16.9698 34.4036 16.2773 34.5957 15.4687C35.14 13.2671 36.5451 12.1663 38.8108 12.1663C39.4272 12.1663 39.9796 12.2704 40.4679 12.4785C40.9564 12.6786 41.3407 12.9829 41.6208 13.3912C41.901 13.7915 42.0412 14.2719 42.0412 14.8322C42.0412 15.0004 42.0212 15.2125 41.981 15.4687C41.861 16.1812 41.7169 16.8737 41.5488 17.5462C41.2685 18.6431 40.7842 19.4636 40.0957 20.008C39.4071 20.5444 38.4865 20.8127 37.3336 20.8127ZM37.5018 19.0833C37.9501 19.0833 38.3303 18.9512 38.6427 18.6871C38.9629 18.4229 39.191 18.0186 39.3271 17.4742C39.5112 16.7216 39.6514 16.0651 39.7474 15.5047C39.7794 15.3366 39.7954 15.1645 39.7954 14.9883C39.7954 14.2598 39.4151 13.8955 38.6546 13.8955C38.2063 13.8955 37.822 14.0276 37.5018 14.2918C37.1895 14.556 36.9654 14.9604 36.8293 15.5047C36.6852 16.0411 36.541 16.6976 36.397 17.4742C36.3649 17.6343 36.3489 17.8024 36.3489 17.9786C36.3489 18.7151 36.7333 19.0833 37.5018 19.0833Z" fill="white"/>
<path d="M42.5947 20.6927C42.5066 20.6927 42.4386 20.6646 42.3906 20.6086C42.3506 20.5445 42.3385 20.4725 42.3545 20.3925L44.0117 12.5867C44.0277 12.4986 44.0718 12.4266 44.1438 12.3704C44.2159 12.3144 44.292 12.2864 44.372 12.2864H47.5664C48.4551 12.2864 49.1675 12.4706 49.7039 12.8389C50.2484 13.2071 50.5205 13.7395 50.5205 14.436C50.5205 14.6362 50.4965 14.8443 50.4485 15.0604C50.2484 15.9811 49.8441 16.6616 49.2356 17.102C48.6352 17.5423 47.8105 17.7624 46.7618 17.7624H45.1406L44.5882 20.3925C44.5721 20.4805 44.5282 20.5525 44.4562 20.6086C44.384 20.6646 44.308 20.6927 44.228 20.6927H42.5947ZM46.8458 16.1052C47.1821 16.1052 47.4743 16.0131 47.7225 15.829C47.9786 15.6449 48.1467 15.3807 48.2269 15.0364C48.2509 14.9003 48.2629 14.7803 48.2629 14.6762C48.2629 14.444 48.1949 14.2679 48.0587 14.1478C47.9226 14.0197 47.6905 13.9557 47.3623 13.9557H45.9211L45.4648 16.1052H46.8458Z" fill="white"/>
<circle cx="68" cy="16.5601" r="15.5" fill="#0052FF" stroke="#302682"/>
<g clip-path="url(#clip1_20872_8518)">
<path d="M67.9831 26.2533C73.3461 26.2533 77.6932 21.9139 77.6932 16.5602C77.6932 11.2066 73.3461 6.86719 67.9831 6.86719C62.8954 6.86719 58.722 10.7739 58.3071 15.7453H71.1415V17.3752H58.3071C58.722 22.3466 62.8954 26.2533 67.9831 26.2533Z" fill="white"/>
</g>
<circle cx="94" cy="16.5601" r="15.5" fill="black" stroke="#302682"/>
<path fill-rule="evenodd" clip-rule="evenodd" d="M103 17.1518L97.7288 11.9043V15.7451L92.4971 19.5938H97.7288V22.3993L103 17.1518Z" fill="white"/>
<path fill-rule="evenodd" clip-rule="evenodd" d="M84.4282 17.1516L89.6994 22.3991V18.5821L94.9311 14.7018H89.6994V11.8962L84.4282 17.1516Z" fill="white"/>
<g clip-path="url(#clip2_20872_8518)">
<path d="M136 0.560059H104V32.5601H136V0.560059Z" fill="black"/>
<path d="M120 28.5601V24.4736C119.59 24.4736 119.171 24.4379 118.762 24.3753L118.12 28.408C118.744 28.5153 119.376 28.5601 120 28.5601ZM121.871 28.417C122.494 28.3186 123.109 28.1756 123.706 27.9788L122.45 24.0891C122.058 24.2143 121.648 24.3127 121.238 24.3753L121.871 28.417ZM116.294 27.9788L117.55 24.0981C117.158 23.9729 116.775 23.8119 116.401 23.6241L114.548 27.2635C115.109 27.5407 115.697 27.7821 116.294 27.9788ZM125.443 27.2635C126.004 26.9773 126.539 26.6465 127.047 26.2799L124.641 22.9803C124.312 23.2218 123.955 23.4453 123.581 23.6241L125.443 27.2635ZM112.944 26.2709L115.35 22.9714C115.02 22.73 114.699 22.4617 114.405 22.1666L111.519 25.0548C111.964 25.493 112.445 25.9043 112.944 26.2709ZM128.463 25.0727L128.49 25.0459C128.935 24.6077 129.345 24.1249 129.71 23.6241L126.414 21.2188C126.174 21.5496 125.898 21.8715 125.612 22.1577L125.568 22.2024L126.958 23.5168L128.463 25.0727ZM110.298 23.6152L113.595 21.2098C113.354 20.879 113.131 20.5213 112.944 20.1547L109.31 22.0057C109.595 22.569 109.924 23.1055 110.298 23.6152ZM130.69 22.0146C130.975 21.4602 131.216 20.87 131.412 20.2709L127.528 19.0191C127.403 19.4125 127.243 19.797 127.056 20.1636L130.69 22.0146ZM108.588 20.2709L112.472 19.0101C112.347 18.6167 112.249 18.2143 112.187 17.803L108.151 18.4379C108.249 19.0548 108.401 19.6718 108.588 20.2709ZM131.849 18.4468C131.947 17.8298 132 17.1949 132 16.569H127.92C127.92 16.9803 127.884 17.4006 127.822 17.8119L131.849 18.4468ZM112.089 16.5601C112.089 16.1487 112.125 15.7285 112.187 15.3171L108.151 14.6823C108.053 15.2993 108.009 15.9341 108 16.5601H112.089ZM127.822 15.3261L131.857 14.6912C131.759 14.0742 131.617 13.4572 131.421 12.8581L127.537 14.11C127.661 14.5124 127.759 14.9148 127.822 15.3261ZM112.472 14.11C112.597 13.7165 112.757 13.332 112.944 12.9654L109.31 11.1145C109.024 11.6689 108.784 12.259 108.588 12.8581L112.472 14.11ZM127.065 12.9744L130.708 11.1234C130.423 10.5601 130.094 10.0235 129.719 9.51386L126.414 11.9192C126.655 12.2501 126.878 12.6077 127.065 12.9744ZM113.595 11.9103C113.835 11.5794 114.111 11.2575 114.405 10.9624L114.414 10.9535L111.528 8.06527L111.519 8.07422C111.073 8.52131 110.664 8.99523 110.298 9.50492L113.595 11.9103ZM125.612 10.9803L126.486 10.0951L128.49 8.0921L128.481 8.08316C128.036 7.64501 127.563 7.23368 127.065 6.86706L124.659 10.1666C124.989 10.408 125.31 10.6763 125.595 10.9714L125.612 10.9803ZM115.359 10.1487C115.688 9.9073 116.045 9.6927 116.419 9.50492L114.566 5.86557C114.004 6.15171 113.47 6.48256 112.962 6.84918L115.359 10.1487ZM123.608 9.51386L125.47 5.87451C124.909 5.58837 124.33 5.34694 123.733 5.15022L122.468 9.031C122.851 9.16513 123.234 9.32608 123.608 9.51386ZM117.568 9.031C117.96 8.90581 118.37 8.80745 118.78 8.74486L118.147 4.71207C117.532 4.81043 116.909 4.9535 116.312 5.15022L117.568 9.031ZM121.247 8.74486L121.889 4.71207C121.274 4.61371 120.641 4.56006 120.018 4.56006V8.6465C120.428 8.6465 120.846 8.68226 121.247 8.74486Z" fill="white"/>
<path d="M119.996 24.5601V20.4687C119.651 20.4687 119.316 20.4241 118.981 20.335L117.922 24.2837C118.601 24.462 119.298 24.5601 119.996 24.5601ZM122.069 24.2837C122.749 24.1055 123.393 23.8381 124.002 23.4815L121.955 19.9428C121.664 20.1121 121.346 20.2459 121.019 20.335L122.069 24.2837ZM115.998 23.4815L118.045 19.9428C117.754 19.7734 117.48 19.5595 117.233 19.3188L117.198 19.2832L115.91 20.647L114.321 22.189L114.347 22.2158C114.842 22.706 115.398 23.1339 115.998 23.4815ZM125.653 22.2158C126.147 21.7166 126.579 21.164 126.923 20.5578L123.384 18.5077C123.217 18.8018 123.005 19.0693 122.758 19.3188L125.653 22.2158ZM113.068 20.5489L116.607 18.5077C116.439 18.2135 116.307 17.9016 116.218 17.5718L112.274 18.6236C112.45 19.2921 112.724 19.9428 113.068 20.5489ZM127.726 18.6325C127.903 17.955 128 17.2598 128 16.5645H123.914C123.914 16.9032 123.87 17.2509 123.782 17.5807L127.726 18.6325ZM116.095 16.5556C116.095 16.2169 116.139 15.8693 116.227 15.5394L112.274 14.4876C112.097 15.1651 112 15.8603 112 16.5556H116.095ZM123.773 15.5484L127.726 14.4965C127.55 13.8191 127.276 13.1684 126.932 12.5623L123.393 14.6035C123.552 14.9066 123.685 15.2186 123.773 15.5484ZM116.616 14.6035C116.783 14.3183 116.986 14.042 117.233 13.8013L117.242 13.7924L115.777 12.3305L114.374 10.8776L114.347 10.9043C113.853 11.3946 113.43 11.9562 113.077 12.5534L116.616 14.6035ZM122.758 13.8013L124.205 12.3484L125.688 10.94L125.653 10.9043C125.158 10.4052 124.602 9.98624 124.002 9.6297L121.955 13.1684C122.246 13.3378 122.511 13.5428 122.758 13.7835V13.8013ZM118.045 13.1684C118.336 12.9991 118.654 12.8654 118.981 12.7762L117.939 8.82747C117.26 9.00574 116.616 9.27315 116.007 9.6297L118.045 13.1684ZM121.01 12.7851L122.069 8.83638C121.399 8.65811 120.702 8.56006 120.004 8.56006V12.6514C120.34 12.6514 120.684 12.696 121.01 12.7851Z" fill="white"/>
</g>
<rect x="104.5" y="1.06006" width="31" height="31" rx="15.5" stroke="#302682"/>
<defs>
<clipPath id="clip0_20872_8518">
<rect width="32" height="32" fill="white" transform="translate(0 0.560059)"/>
</clipPath>
<clipPath id="clip1_20872_8518">
<rect width="20" height="20" fill="white" transform="translate(58 6.56006)"/>
</clipPath>
<clipPath id="clip2_20872_8518">
<rect x="104" y="0.560059" width="32" height="32" rx="16" fill="white"/>
</clipPath>
</defs>
</svg>

<svg xmlns="http://www.w3.org/2000/svg" width="162" height="33" fill="none"><g clip-path="url(#a)"><path fill="#213147" d="M22.825 10.046v-.016a.326.326 0 0 0-.61 0l-1.894 5.196a.747.747 0 0 0 0 .453l5.051 13.85c-.471.341-.962.658-1.47.947l-4.27-11.714a.326.326 0 0 0-.61 0l-1.893 5.195a.749.749 0 0 0 0 .454l2.792 7.665a16.03 16.03 0 0 1-3.92.484c-1.265 0-2.494-.146-3.673-.424l9.26-25.407a.322.322 0 0 0-.297-.438v.015h-3.646a.661.661 0 0 0-.61.423L8.323 30.602a15.958 15.958 0 0 1-1.48-.92L15.22 6.73a.322.322 0 0 0-.297-.438l-.016.015H11.26a.661.661 0 0 0-.61.423L3.446 26.48A15.93 15.93 0 0 1 0 16.56c0-8.837 7.163-16 16-16s16 7.163 16 16c0 3.64-1.215 6.995-3.262 9.684l-5.913-16.198Z"/><path fill="#12AAFF" d="M23.902 30.476a15.898 15.898 0 0 1-3.98 1.6l-2.793-7.665a.747.747 0 0 1 0-.454l1.893-5.195c.11-.282.501-.282.61 0l4.27 11.714ZM28.738 26.244a16.086 16.086 0 0 1-3.366 3.285l-5.051-13.85a.747.747 0 0 1 0-.454l1.893-5.195c.11-.281.501-.281.61 0v.016l5.913 16.198Z"/><path fill="#fff" d="M15.22 6.729 6.843 29.682a16.084 16.084 0 0 1-3.397-3.202L10.65 6.73a.661.661 0 0 1 .61-.423h3.647l.015-.015c.22 0 .376.219.298.438ZM21.588 6.729l-9.26 25.407a15.88 15.88 0 0 1-4.005-1.535L17.035 6.73a.661.661 0 0 1 .61-.423h3.646v-.015c.22 0 .376.219.297.438Z"/><circle cx="16" cy="16.56" r="15.5" stroke="#302682"/></g><path fill="#FF0420" stroke="#302682" d="M57.5 16.56c0 8.56-6.94 15.5-15.5 15.5-8.56 0-15.5-6.94-15.5-15.5C26.5 8 33.44 1.06 42 1.06c8.56 0 15.5 6.94 15.5 15.5Z"/><path fill="#fff" d="M37.334 20.813c-.953 0-1.734-.225-2.342-.673-.6-.456-.9-1.105-.9-1.945 0-.176.02-.393.06-.649.103-.576.252-1.269.444-2.077.544-2.202 1.95-3.303 4.215-3.303.616 0 1.169.104 1.657.313.488.2.873.504 1.153.912.28.4.42.88.42 1.441 0 .168-.02.38-.06.637a27.18 27.18 0 0 1-.432 2.077c-.28 1.097-.765 1.918-1.453 2.462-.689.536-1.61.805-2.762.805Zm.168-1.73c.448 0 .828-.132 1.14-.396.32-.264.549-.668.685-1.213.184-.752.324-1.409.42-1.97.032-.167.048-.34.048-.516 0-.728-.38-1.092-1.14-1.092-.449 0-.833.132-1.153.396-.313.264-.537.668-.673 1.213a26.077 26.077 0 0 0-.432 1.97c-.032.16-.048.327-.048.504 0 .736.384 1.104 1.153 1.104ZM42.595 20.693a.254.254 0 0 1-.204-.084.287.287 0 0 1-.036-.217l1.657-7.805a.344.344 0 0 1 .132-.217.366.366 0 0 1 .228-.084h3.194c.89 0 1.601.185 2.138.553.544.368.816.9.816 1.597 0 .2-.024.408-.072.624-.2.921-.604 1.602-1.212 2.042-.6.44-1.425.66-2.474.66H45.14l-.553 2.63a.344.344 0 0 1-.132.217.367.367 0 0 1-.228.084h-1.633Zm4.25-4.588c.337 0 .63-.092.877-.276.257-.184.425-.448.505-.793.024-.136.036-.256.036-.36 0-.232-.068-.408-.204-.528-.136-.128-.368-.192-.697-.192h-1.44l-.457 2.15h1.38Z"/><circle cx="68" cy="16.56" r="15.5" fill="#0052FF" stroke="#302682"/><g clip-path="url(#b)"><path fill="#fff" d="M67.983 26.253c5.363 0 9.71-4.34 9.71-9.693s-4.347-9.693-9.71-9.693c-5.088 0-9.261 3.907-9.676 8.878h12.834v1.63H58.307c.415 4.972 4.588 8.878 9.676 8.878Z"/></g><circle cx="94" cy="16.56" r="15.5" fill="#000" stroke="#302682"/><path fill="#fff" fill-rule="evenodd" d="m103 17.152-5.271-5.248v3.841l-5.232 3.849h5.232v2.805L103 17.152ZM84.428 17.152l5.271 5.247v-3.817l5.232-3.88H89.7v-2.806l-5.27 5.256Z" clip-rule="evenodd"/><g clip-path="url(#c)"><path fill="#000" d="M136 .56h-32v32h32v-32Z"/><path fill="#fff" d="M120 28.56v-4.086a8.24 8.24 0 0 1-1.238-.099l-.642 4.033c.624.107 1.256.152 1.88.152Zm1.871-.143a11.68 11.68 0 0 0 1.835-.438l-1.256-3.89a7.958 7.958 0 0 1-1.212.286l.633 4.042Zm-5.577-.438 1.256-3.88a7.967 7.967 0 0 1-1.149-.475l-1.853 3.64a13.48 13.48 0 0 0 1.746.715Zm9.149-.715a12.28 12.28 0 0 0 1.604-.984l-2.406-3.3a6.677 6.677 0 0 1-1.06.644l1.862 3.64Zm-12.499-.993 2.406-3.3a8.008 8.008 0 0 1-.945-.804l-2.886 2.888c.445.438.926.85 1.425 1.216Zm15.519-1.198.027-.027c.445-.438.855-.921 1.22-1.422l-3.296-2.405a7.96 7.96 0 0 1-.802.939l-.044.044 1.39 1.315 1.505 1.556Zm-18.165-1.458 3.297-2.405a7.924 7.924 0 0 1-.651-1.055l-3.634 1.85c.285.564.614 1.1.988 1.61Zm20.392-1.6c.285-.555.526-1.145.722-1.744l-3.884-1.252a7.577 7.577 0 0 1-.472 1.145l3.634 1.85Zm-22.102-1.744 3.884-1.26a7.85 7.85 0 0 1-.285-1.208l-4.036.635c.098.617.25 1.234.437 1.833Zm23.261-1.824a12.04 12.04 0 0 0 .151-1.878h-4.08c0 .411-.036.832-.098 1.243l4.027.635Zm-19.76-1.887c0-.411.036-.831.098-1.243l-4.036-.635A13.244 13.244 0 0 0 108 16.56h4.089Zm15.733-1.234 4.035-.635a11.915 11.915 0 0 0-.436-1.833l-3.884 1.252c.124.402.222.805.285 1.216Zm-15.35-1.216c.125-.393.285-.778.472-1.145l-3.634-1.85a11.86 11.86 0 0 0-.722 1.743l3.884 1.252Zm14.593-1.136 3.643-1.85c-.285-.564-.614-1.1-.989-1.61l-3.305 2.405c.241.331.464.689.651 1.055Zm-13.47-1.064c.24-.33.516-.652.81-.948l.009-.008-2.886-2.889-.009.01c-.446.446-.855.92-1.221 1.43l3.297 2.405Zm12.017-.93.874-.885 2.004-2.003-.009-.009c-.445-.438-.918-.85-1.416-1.216l-2.406 3.3c.33.241.651.51.936.804l.017.01Zm-10.253-.831a7.423 7.423 0 0 1 1.06-.644l-1.853-3.64c-.562.287-1.096.618-1.604.984l2.397 3.3Zm8.249-.635 1.862-3.64a12.266 12.266 0 0 0-1.737-.724l-1.265 3.881c.383.134.766.295 1.14.483Zm-6.04-.483a7.958 7.958 0 0 1 1.212-.286l-.633-4.033a11.9 11.9 0 0 0-1.835.438l1.256 3.881Zm3.679-.286.642-4.033a11.92 11.92 0 0 0-1.871-.152v4.087c.41 0 .828.035 1.229.098Z"/><path fill="#fff" d="M119.996 24.56V20.47c-.345 0-.68-.045-1.015-.134l-1.059 3.949a8.175 8.175 0 0 0 2.074.276Zm2.073-.276a7.64 7.64 0 0 0 1.933-.802l-2.047-3.54c-.291.17-.609.304-.936.393l1.05 3.949Zm-6.071-.802 2.047-3.54a4.21 4.21 0 0 1-.812-.623l-.035-.036-1.288 1.364-1.589 1.542.026.027c.495.49 1.051.918 1.651 1.265Zm9.655-1.266a7.93 7.93 0 0 0 1.27-1.658l-3.539-2.05a3.88 3.88 0 0 1-.626.81l2.895 2.898Zm-12.585-1.667 3.539-2.041a3.97 3.97 0 0 1-.389-.936l-3.944 1.052c.176.668.45 1.319.794 1.925Zm14.658-1.916a8.192 8.192 0 0 0 .274-2.069h-4.086c0 .34-.044.687-.132 1.017l3.944 1.052Zm-11.631-2.077c0-.34.044-.687.132-1.017l-3.953-1.051a8.192 8.192 0 0 0-.274 2.068h4.095Zm7.678-1.008 3.953-1.052a8.02 8.02 0 0 0-.794-1.934l-3.539 2.042c.159.303.292.615.38.944Zm-7.157-.944c.167-.286.37-.562.617-.803l.009-.009-1.465-1.461-1.403-1.453-.027.026a8.195 8.195 0 0 0-1.27 1.65l3.539 2.05Zm6.142-.803 1.447-1.453 1.483-1.408-.035-.036a8.226 8.226 0 0 0-1.651-1.274l-2.047 3.538c.291.17.556.375.803.616v.017Zm-4.713-.633c.291-.169.609-.303.936-.392l-1.042-3.949a7.654 7.654 0 0 0-1.932.803l2.038 3.538Zm2.965-.383 1.059-3.949a8.054 8.054 0 0 0-2.065-.276v4.091c.336 0 .68.045 1.006.134Z"/></g><rect width="31" height="31" x="104.5" y="1.06" stroke="#302682" rx="15.5"/><rect width="31" height="31" x="130.5" y="1.06" fill="#000" rx="15.5"/><rect width="31" height="31" x="130.5" y="1.06" stroke="#302682" rx="15.5"/><mask id="d" width="16" height="17" x="139" y="8" maskUnits="userSpaceOnUse" style="mask-type:luminance"><path fill="#fff" d="M154.833 8.822h-15.5v15.344h15.5V8.822Z"/></mask><g fill="#fff" mask="url(#d)"><path d="M152.206 24.166h-12.873V11.312h2.946v10.363h9.927v2.491ZM152.206 13.802c1.451 0 2.627-1.115 2.627-2.49 0-1.375-1.176-2.49-2.627-2.49-1.451 0-2.627 1.115-2.627 2.49 0 1.375 1.176 2.49 2.627 2.49Z"/></g><defs><clipPath id="a"><path fill="#fff" d="M0 .56h32v32H0z"/></clipPath><clipPath id="b"><path fill="#fff" d="M58 6.56h20v20H58z"/></clipPath><clipPath id="c"><rect width="32" height="32" x="104" y=".56" fill="#fff" rx="16"/></clipPath></defs></svg>
